!!!COM: Palestrina, Giovanni Perluigi da
!!!OPR: Missa Veni creator Spiritus
!!!OTL: Kyrie II
**kern	**kern	**kern	**kern	**kern	**kern
*Ibass	*Itenor	*Itenor	*Icalto	*Icant	*Icant
!Bassus	!Tenor 2	!Tenor 1	!Altus	!Cantus 2	!Cantus 1
*clefF4	*clefGv2	*clefGv2	*clefG2	*clefG2	*clefG2
*k[]	*k[]	*k[]	*k[]	*k[]	*k[]
*G:mix	*G:mix	*G:mix	*G:mix	*G:mix	*G:mix
*M4/2	*M4/2	*M4/2	*M4/2	*M4/2	*M4/2
=1	=1	=1	=1	=1	=1
0r	0r	0r	1g	1r	0r
.	.	.	2f	1dd	.
.	.	.	2d	.	.
=2	=2	=2	=2	=2	=2
0r	0r	0r	2e	2cc	0r
.	.	.	2f	2a	.
.	.	.	4g	1b	.
.	.	.	4d	.	.
.	.	.	[2g	.	.
=3	=3	=3	=3	=3	=3
0r	1d	0r	4g]	2.a	0r
.	.	.	4f	.	.
.	.	.	2f	.	.
.	.	.	.	4b	.
.	2c	.	2e	4cc	.
.	.	.	.	4dd	.
.	2A	.	2c	2ee	.
=4	=4	=4	=4	=4	=4
1G	1B	0r	0d	2.dd	1g
.	.	.	.	4ee	.
2F	2A	.	.	1ff	1a
2D	[2d	.	.	.	.
=5	=5	=5	=5	=5	=5
1E	4d]	0r	1G	2gg	1g
.	4c	.	.	.	.
.	2.c	.	.	2ee	.
1D	.	.	1d	1ff	1f
.	4B	.	.	.	.
.	4B	.	.	.	.
.	4A	.	.	.	.
=6	=6	=6	=6	=6	=6
1C	2c	2r	1e	2ee	1g
.	2e	1g	.	2cc	.
1r	1d	.	2r	[1dd	1a
.	.	2f	2a	.	.
=7	=7	=7	=7	=7	=7
1r	2G	2d	2b	2dd]	1g
.	2.c	2.e	2cc	2cc	.
1c	.	.	2g	1ee	1cc
.	4d	4d	.	.	.
.	2e	2c	[2a	.	.
=8	=8	=8	=8	=8	=8
2B	1d	2G	4a]	1r	1dd
.	.	.	4g	.	.
2G	.	2B	1g	.	.
1A	2r	2c	.	2r	1cc
.	2c	2A	2f#	2cc	.
=9	=9	=9	=9	=9	=9
2G	2d	1B	1g	2b	1r
2G	2e	.	.	2g	.
2F	2f	2A	2c	4a	1cc
.	.	.	.	4b	.
[2C	[2e	2G	[2g	4cc	.
.	.	.	.	4dd	.
=10	=10	=10	=10	=10	=10
4C]	4e]	0r	4g]	4ee	1g
4D	4d	.	4f	4ff	.
2E	2B	.	2e	1gg	.
1D	1d	.	2A	.	1a
.	.	.	2d	2ff#	.
=11	=11	=11	=11	=11	=11
1C	1G	2r	1e	0gg	1cc
.	.	2c	.	.	.
1G	2r	2B	2d	.	1dd
.	2g	2G	2B	.	.
=12	=12	=12	=12	=12	=12
0r	2e	1A	2c	0r	1cc
.	2c	.	1cc	.	.
.	1g	2G	.	.	1dd
.	.	2g	2b	.	.
=13	=13	=13	=13	=13	=13
2r	1c	2e	2g	1r	1ee
2c	.	2c	2.a	.	.
2B	1G	2d	.	2r	1dd
.	.	.	4g	.	.
2G	.	2B	[2g	2dd	.
=14	=14	=14	=14	=14	=14
2.A	2r	2.c	2g]	2cc	1r
.	1c	.	2f	4a	.
4G	.	4B	.	4b	.
2F	.	2A	2a	4cc	1cc
.	.	.	.	4dd	.
2E	2G	[2c	2g	2ee	.
=15	=15	=15	=15	=15	=15
1D	2A	2c]	1f	2ff	1dd
.	2F	2B	.	2dd	.
[1C	1G	[1c	2.e	2.gg	1ee
.	.	.	4f	4ff	.
=16	=16	=16	=16	=16	=16
1C]	2r	1c]	0g	1ee	1cc
.	2c	.	.	.	.
1G	2d	2r	.	2dd	1b
.	2e	2G	.	2g	.
=17	=17	=17	=17	=17	=17
2F	0f	1.A	0r	1cc	1a
2F	.	.	.	.	.
1D	.	.	.	2r	1dd
.	.	2B	.	2dd	.
=18	=18	=18	=18	=18	=18
1A	2e	2c	1r	2ee	1cc
.	2c	2A	.	2ff	.
1G	1d	2r	2r	[1gg	1b
.	.	2d	[2g	.	.
=19	=19	=19	=19	=19	=19
0r	0r	2e	2g]	2gg]	1cc
.	.	2f	2a	4ff	.
.	.	.	.	4ee	.
.	.	2g	2b	2dd	1r
.	.	2d	[2a	2ff	.
=20	=20	=20	=20	=20	=20
0r	2r	1e	2a]	0ee	1b
.	1e	.	2g#	.	.
.	.	[1A	2.a	.	1cc
.	2c	.	.	.	.
.	.	.	4b	.	.
=21	=21	=21	=21	=21	=21
2r	2e	1A]	1cc	2r	1a
2A	1f	.	.	2cc	.
2B	.	1r	2r	2dd	1g
2c	[2e	.	2cc	2ee	.
=22	=22	=22	=22	=22	=22
1d	4e]	2r	2a	1ff	1f
.	4d	.	.	.	.
.	2d	2d	2.a	.	.
2A	2c	2e	.	2ee	1a
.	.	.	4e	.	.
2D	2d	2f	2a	2dd	.
=23	=23	=23	=23	=23	=23
2E	2G	2g	2g	2r	1cc
2F	2c	2.a	4f	2a	.
.	.	.	4e	.	.
1G	1r	.	1d	2b	1b
.	.	4g	.	.	.
.	.	[2g	.	2dd	.
=24	=24	=24	=24	=24	=24
1D	2r	2g]	2r	2.dd	1a
.	2A	2f#	1d	.	.
.	.	.	.	4cc	.
2G	2B	2g	.	4b	1g
.	.	.	.	4a	.
2E	2c	2G	2e	2g	.
=25	=25	=25	=25	=25	=25
2D	2d	1A	2f	2dd	1r
2F	2A	.	1a	4cc	.
.	.	.	.	4dd	.
1E	1e	1B	.	[1ee	1b
.	.	.	2g#	.	.
=26	=26	=26	=26	=26	=26
0A	1e	4A	1a	1ee]	1cc
.	.	4B	.	.	.
.	.	4c	.	.	.
.	.	4d	.	.	.
.	2r	4e	1r	2r	1a
.	.	4c	.	.	.
.	2A	[2f	.	2cc	.
=27	=27	=27	=27	=27	=27
0r	2B	2f]	1r	2dd	1g
.	2c	2e	.	2ee	.
.	1d	1a	2r	2.ff	1f
.	.	.	2d	.	.
.	.	.	.	8ee	.
.	.	.	.	8dd	.
=28	=28	=28	=28	=28	=28
2r	1A	2r	2e	2cc	1a
2D	.	2a	2f	2ff	.
2E	2r	2g	2g	2ee	1cc
2F	2A	4f	[2a	2a	.
.	.	4e	.	.	.
=29	=29	=29	=29	=29	=29
1G	2B	1d	4a]	1dd	1b
.	.	.	4g	.	.
.	2G	.	1g	.	.
1D	2A	2.d	.	2r	1a
.	[2d	.	2f#	2a	.
.	.	4c	.	.	.
=30	=30	=30	=30	=30	=30
2G	2d]	2B	[0g	2b	[0g
2C	1c	2e	.	2cc	.
1G	.	2d	.	1dd	.
.	2B	2d	.	.	.
=31	=31	=31	=31	=31	=31
0C	0c	2.e	0g]	2.cc	0g]
.	.	4f	.	4dd	.
.	.	2g	.	1ee	.
.	.	[2c	.	.	.
=32	=32	=32	=32	=32	=32
[0G	[0d	2c]	[0g	[0dd	[0g
.	.	4B	.	.	.
.	.	4A	.	.	.
.	.	1B	.	.	.
=33	=33	=33	=33	=33	=33
0G]	0d]	0B	0g]	0dd]	0g]
==	==	==	==	==	==
*-	*-	*-	*-	*-	*-
!!!CDT: 1525/^1526/-1594/2/2
!!!OCY: Italia
!!!AGN: Mass (Tenor)
!!!AST: renaissance, vocal
!!!ASW: Hymn
!!!PWK: Masses, Book 9
!!!RNB: Cadence finals: C,D
!!!YOR: Le Opere Complete, v. 25, p. 246
!!!YOO: Rome, Italy: Fratelli Scalera
!!!END: 1992//
!!!EED: John Miller
!!!YEC: Copyright 2000, John Miller
!!!YEN: United States of America
!!!YEM: Rights to all derivative electronic formats reserved.
!!!YEM: Refer to licensing agreement for further details.
!!!YEM: This file must be accompanied by the licensing agreement.
!!!YEM: A copy of the licensing agreement may be found at http://www.music-cog.ohio-state.edu/HumdrumDatabases/Palestrina/license.txt
!!!EMD: converted to Humdrum by Bret Aarden
